X: 354
T: Altamont
B: jims roots
M:2/2
L:1/8
Q: 1/2=100
K:C
V:1 
%Q:360
AB |: "C"c2cc c2cc | cccc aged | cBcB cBcB | "G"cAcc "C"AGEG |
c2cc c2cc | cccc g3g | agag "G"aged |[1 "C"c2[c2E2] z2AB:| [2 "C"c2[c2E2] z2ef||
"C"g2g2 z2g2 | e3f e2ee | "G"d2B2 d2B2 | dBde dcB2 |
"C"gggg g2f2 | e3f e2ee | "G"dddd e2d2 |[1 "C"c2[c2E2] z2ef:|[2 "C"c2[c2E2] z4||
% abcbook-tune_id 6298c245c1123bdafd8ba8ab


% abcbook-boost 0
% abcbook-tablature 
% abcbook-transpose 
% abcbook-lastupdated 1654178373172
% abcbook-soundfonts 
% abcbook-repeats 1


